!!!!SEGMENT: pl-wnifc--13846--012_anonim--piesni-polskie-i-ruskie-ludu-galicyjskiego-12-idzie-zolnierz-gora-lasem.krn
!!!kernsource:
!!!cenid: 18xx:3234
!!!COM: Anonim
!!!COM-rismID: pe30004985
!!!CDT:
!!!CNT:
!!!GTL: Pieśni polskie i ruskie ludu galicyjskiego
!!!OTL: 12. Idzie żołnierz górą lasem
!!!OMV: 012
!!!PDT: 1833
!!!AGN:
!!!SMS-siglum: PL-Wnifc
!!!SMS-shelfmark: 13846
!!!SMS-shelfwork: 001-012 G
!!!NIFC-rismSourceID: 1001036701
!!!NIFC-rismChildID: 1001036737
!!!NIFC-islandoraID: nifc:210326
!!!URL-pdf-islandora: https://repozytorium.nifc.pl/islandora/object/nifc%3A210326/datastream/PDF/view
!!!URL-scan:
!!!IIIF:
!!!ONB-nifc:
!!!AIN: 1 piano 1 vox
!!!key: a
!!!OMD: Andantino.
**kern	**kern	**kern	**text
*part2	*part2	*part1	*part1
*staff3	*staff2	*staff1	*staff1
*I"FORTEPIAN.	*I"FORTEPIAN.	*I"GŁOS.	*
*Ipiano	*Ipiano	*Ivox	*
*ICklav	*ICklav	*ICvox	*
*IGacmp	*IGacmp	*IGsolo	*
*clefF4	*clefG2	*clefG2	*
*k[]	*k[]	*k[]	*
*a:	*a:	*a:	*
*M3/4	*M3/4	*M3/4	*
=1-	=1-	=1-	=1-
!	!	!LO:TX:a:t=C.d.II.	!
*^	*	*	*
4AA/	4AAA\	8a/L 8c/	8a/	I-
.	.	8a/J 8c/	8a/	-dzie
4c/	4c\ 4G\ 4BB\	4ee/ 4e/	4ee\	żoł-
4A/	4A\ 4F\ 4D\	4dd/ 4d/	4dd\	-nierz
*v	*v	*	*	*
=2	=2	=2	=2
8c\L 8G\ 8C\	8ee/L 8e/	8ee\	gó-
8D/J 8AA/	8ff#X\J 8cc\	8ff#X\	-rą
8.D\L 8.GG\	8.ff#\L 8.b\	(8.gg\L	la-
16d\Jk 16B\ 16G\	16dd\Jk 16b\	16dd\Jk)	.
4d\ 4B\ 4G\;	4dd\ 4b\;	4dd\;	-sem
!!LO:LB:g=original
=3	=3	=3	=3
*^	*	*	*
4B/	4G\	8dd/L 8g/	8dd\	przy-
.	.	8ff\J	8ff\	-mie-
*	*	*^	*	*
4c/	4c\ 4C\	4ee/	4ee\ 4g\	4ee\	-ra-
4ryy	4F\	4a/	4f\	4a/	-jąc
=4	=4	=4	=4	=4	=4
2B/	2G\	8g/L	2f\ 2d\	8g/	gło-
.	.	8g/	.	8g/	-du
.	.	8a/	.	8a/L	cza-
.	.	8g/J	.	8g/J	.
4c/	4c\ 4G\ 4C\	4cc/	4cc\ 4e\	4cc\	-sem
=5	=5	=5	=5	=5	=5
4G#X/	4G#X\ 4BB\	8dd/L	4f\	8dd\	przy-
.	.	8ff/J	.	8ff\	-mie-
4A/	4A\ 4C\	4ryy	4ee\ 4e\	4ee\	-ra-
*	*	*v	*v	*	*
!!LO:LB:g=original
=	=	=	=	=
4F/	4D\	8dd\L 8b\	(8dd\L	-jąc
.	.	8cc\J 8a\	8cc\J)	.
*v	*v	*	*	*
=6	=6	=6	=6
*	*^	*	*
4d\ 4E\	8b/L	4g#X\	8b\	gło-
.	8ee/J	.	(16b\LL	-du
.	.	.	16ee\JJ)	.
*	*v	*v	*	*
[4c\ [4A\	4a/ [4e/	4a/	cza-
8c\] 8A\]	8a/ 8e/]	8a/	-sem
8r	8r	8r	.
==	==	==	==
*-	*-	*-	*-
!!!system-decoration: s1{(s2,s3)}
!!!ENC: Marta Lawrence
!!!END: 2021-11-10
!!!YEC: Copyright 2022 Narodowy Instytut Fryderyka Chopina (https://polishscores.org)
!!!YEM: License CC-BY-4.0 (https://creativecommons.org/licenses/by/4.0)
